<?xml version="1.0" encoding="UTF-8"?>
<map version="1.10" tiledversion="1.12.2" orientation="orthogonal" renderorder="right-down" width="10" height="8" tilewidth="16" tileheight="16" infinite="0" nextlayerid="3" nextobjectid="2">
 <tileset firstgid="1" source="tiles.tsx"/>
 <layer id="1" name="Ground" width="10" height="8">
  <data encoding="csv">
2,2,2,2,2,2,2,2,2,2,
2,1,1,1,1,1,1,1,1,2,
2,1,1,1,3,3,1,1,1,2,
2,1,1,1,3,3,1,1,1,2,
2,1,1,1,3,3,1,4,1,2,
2,1,1,1,3,3,1,1,1,2,
2,1,1,1,1,1,1,1,1,2,
2,2,2,2,2,2,2,2,2,2
  </data>
 </layer>
 <objectgroup id="2" name="Markers">
  <object id="1" name="Player Spawn" type="spawn" x="80" y="64">
   <point/>
  </object>
 </objectgroup>
</map>
