<?xml version='1.0' encoding='utf-8'?>
<map version="1.10" tiledversion="1.12.2" orientation="orthogonal" renderorder="right-down" width="28" height="14" tilewidth="64" tileheight="64" infinite="0" nextlayerid="4" nextobjectid="1">
 <tileset firstgid="1" source="tiles.tsx" />
 <layer id="1" name="Floor" width="28" height="14">
  <data encoding="csv">
22,22,22,22,22,22,22,22,22,22,22,22,22,22,22,22,22,22,22,22,22,22,22,22,22,22,22,22,
22,22,22,22,22,22,22,22,22,22,22,22,22,22,22,22,22,22,22,22,22,22,22,22,22,22,22,22,
22,22,22,22,22,22,22,22,22,22,22,22,22,22,22,22,22,22,22,22,22,22,22,22,22,22,22,22,
22,22,22,22,22,22,22,22,22,22,22,22,22,22,22,22,22,22,22,22,22,22,22,22,22,22,22,22,
22,22,22,22,22,22,22,22,22,22,22,22,22,22,22,22,22,22,22,22,22,22,22,22,22,22,22,22,
22,22,22,22,22,22,22,22,22,22,22,22,22,22,22,22,22,22,22,22,22,22,22,22,22,22,22,22,
22,22,22,22,22,22,22,22,22,22,22,22,22,22,22,22,22,22,22,22,22,22,22,22,22,22,22,22,
22,22,22,22,22,22,22,22,22,22,22,22,22,22,22,22,22,22,22,22,22,22,22,22,22,22,22,22,
22,22,22,22,22,22,22,22,22,22,22,22,22,22,22,22,22,22,22,22,22,22,22,22,22,22,22,22,
22,22,22,22,22,22,22,22,22,22,22,22,22,22,22,22,22,22,22,22,22,22,22,22,22,22,22,22,
22,22,22,22,22,22,22,22,22,22,22,22,22,22,22,22,22,22,22,22,22,22,22,22,22,22,22,22,
22,22,22,22,22,22,22,22,22,22,22,22,22,22,22,22,22,22,22,22,22,22,22,22,22,22,22,22,
22,22,22,22,22,22,22,22,22,22,22,22,22,22,22,22,22,22,22,22,22,22,22,22,22,22,22,22,
22,22,22,22,22,22,22,22,22,22,22,22,22,22,22,22,22,22,22,22,22,22,22,22,22,22,22,22
</data>
 </layer>
 <layer id="2" name="Walls" width="28" height="14">
  <data encoding="csv">
0,0,0,0,0,0,0,0,0,0,0,0,0,0,0,0,0,0,0,0,0,0,0,0,0,0,0,0,
0,0,0,0,0,0,0,0,0,0,0,0,0,0,0,0,0,0,0,0,0,0,0,0,0,0,0,0,
0,0,2,6,6,6,6,6,6,6,6,5,0,0,0,0,2,6,6,6,6,6,6,6,6,5,0,0,
0,0,3,21,21,21,21,21,21,21,21,15,0,0,0,0,3,21,21,21,21,21,21,21,21,15,0,0,
0,0,3,21,21,21,21,21,21,21,21,18,0,0,0,0,4,21,17,14,11,11,12,13,21,15,0,0,
0,0,3,21,21,21,21,21,21,21,21,20,19,6,6,7,8,21,16,0,0,0,0,9,21,15,0,0,
0,0,3,21,21,21,21,21,21,21,21,21,21,21,21,21,21,21,15,0,0,0,0,3,21,15,0,0,
0,0,3,21,21,21,21,21,21,21,21,21,21,21,21,21,21,21,15,0,0,0,0,3,21,15,0,0,
0,0,3,21,21,21,21,21,21,21,21,17,14,11,11,12,13,21,18,0,0,0,0,4,21,15,0,0,
0,0,3,21,21,21,21,21,21,21,21,16,0,0,0,0,9,21,20,19,6,6,7,8,21,15,0,0,
0,0,3,21,21,21,21,21,21,21,21,15,0,0,0,0,3,21,21,21,21,21,21,21,21,15,0,0,
0,0,1,11,11,11,11,11,11,11,11,10,0,0,0,0,1,11,11,11,11,11,11,11,11,10,0,0,
0,0,0,0,0,0,0,0,0,0,0,0,0,0,0,0,0,0,0,0,0,0,0,0,0,0,0,0,
0,0,0,0,0,0,0,0,0,0,0,0,0,0,0,0,0,0,0,0,0,0,0,0,0,0,0,0
</data>
 </layer>
 <objectgroup id="3" name="Objects" />
</map>