<?xml version="1.0" encoding="UTF-8"?>
<map version="1.11" tiledversion="1.12.2" orientation="orthogonal" renderorder="right-down" width="12" height="12" tilewidth="64" tileheight="64" infinite="0" nextlayerid="2" nextobjectid="1">
 <tileset firstgid="1" source="space-tech-robot-wang.tsx"/>
 <layer id="1" name="Walls" width="12" height="12">
  <data encoding="csv">
0,0,0,0,0,0,0,0,0,0,0,0,
0,0,0,0,0,0,0,0,0,0,0,0,
0,0,2,6,6,6,6,6,6,5,0,0,
0,0,3,21,21,21,21,21,21,15,0,0,
0,0,3,21,21,21,21,21,21,15,0,0,
0,0,3,21,21,21,21,21,21,15,0,0,
0,0,3,21,21,21,21,21,21,15,0,0,
0,0,3,21,21,21,21,21,21,15,0,0,
0,0,3,21,21,21,21,21,21,15,0,0,
0,0,1,11,11,11,11,11,11,10,0,0,
0,0,0,0,0,0,0,0,0,0,0,0,
0,0,0,0,0,0,0,0,0,0,0,0
</data>
 </layer>
</map>
